X: 29
T:Ne
R:polka
Z:added by Alf 
M:2/4
L:1/16
K:A
| E3E E2c2|B2A2 B2c2|E3E E2c2|B2A2 F4|\
E3E E2c2|B2A2 B2c2|e3f e2c2|B2A2 A4:|
c3e e2c2|B2A2 F2E2|c3e e2c2|B2A2 A3B|\
c3e e2c2|B2A2 F2A2|E3E E2c2|B2A2 A4:|
